X: 157
U:~=!turn!
U:n=!diminuendo(!
U:p=!diminuendo)!
M:C
L:1/8
K:D
g | fa^gb adfd | Be^df eAcA | fa^gb adfd | Bdce fddg |
fa^gb adfd | Be^df eAce | !f!fnedc BAGF | EDCB, pA,GFE !segno!|| x "Last"H[F4A4d4] |]


